X: 42142
T: Watching The Whale
R: reel
M: 4/4
K: Adorian
|:e2A2 ABcd|e2 af gfdf|e2A2 ABcA|d2GA BcdB|
e2A2 ABcd|e2 af gfef|e2 GA BcBG|A2(3eee A2 ee:|
|:e2a2a2 ba|g2e2 e2 ef|g2 ag fedf|e2A2 efge|
a2 (3aaa a2 ba|g2e2 e2 ef|g2 af fedf|e2A2 A4:|

